X: 647
T: Hai tai
%%abc-version 2.0
%%abcx-abcm2ps-target-version 5.9.1 (29 Sep 2008)
%%abc-creator hum2abc beta
%%abcx-conversion-date 2013/10/02 07:52:30
%%abc-edited-by Helmut Schaffrath
%%humdrum-veritas 3896635800
%%humdrum-veritas-data 656819047
%%continueall 1
%%barnumbers 0
L: 1/16
M: 2/4
K: F
d2 d2 d c A c [I:setbarnb 1]| 
d2> c2d4 | 
c d f2 f d c A | 
G2> F2G4 | 
c2 c A d2 d f | 
A G F2 D2 C2 | 
F F2 A G2 F D | 
C8 |]  



